X:1
T:The Risen Jesus
T:The Risen Jesus
T:Daniel Brink Towner
T:Julia Harriette Johnston, 1896
T:Public Domain Courtesy of the Cyber Hymnal™
T:Public Domain Courtesy of the Cyber Hymnal™
T:Public Domain Courtesy of the Cyber Hymnal™
C:Daniel Brink Towner
Z:Public Domain
Z:Courtesy of the Cyber Hymnal™
%%score ( 1 2 ) ( 3 4 )
L:1/8
Q:1/4=80
M:6/8
K:D
V:1 treble 
V:2 treble 
V:3 bass 
V:4 bass 
V:1
 [FA]>[FA][FA] [GB][FA][DF] | [CE][B,D][CE] [DF] [FA]2 | [FA]>[FA][FA] [GB][FA][Fd] | %3
w: 1.~Soft- ly the light of the|beau- ti- ful morn- ing|Fell on the gar- den, all|
w: 2.~“Seek not the liv- ing at|death’s gloom- y por- tal,|Je- sus is ris- en, oh,|
w: 3.~Lo, in the midst of dis-|ci- ples as- sem- bled,|Show- ing the wounds in His|
 [Ec][Ed][DB] [CA]3 | [DA]>[DA][DA] [DB][DA][DF] | [CE][B,D][CE] [DF] [FA]2 | %6
w: smil- ing with bloom,|When, in the dawn, with- out|trump- et of warn- ing,|
w: be not a- fraid;|He is not here,” said the|an- gel im- mor- tal;|
w: hands and His feet,|Ten- der- ly, ten- der- ly,|while they all trem- bled,|
 [Ad]>[Ad][Ad] [Bd][GB][EG] | [DF]<[DF][CE] D3 | [DF]>[EF]F [DB][DF][DB] | %9
w: An- gels des- cend- ed to|o- pen the tomb.|Wo- men of Gal- i- lee,|
w: “Come, see the place where the|Sav- ior was laid.”|Won- der- ful tid- ings! oh,|
w: “Peace, peace be un- to you,”|hear Him re- peat.|Je- sus, vic- tor- i- ous,|
 [Fd][Ec][DB] [Ec] [EF]2 | [DF]>[EF]F [EG][DF][CE] | [B,D]>[^A,E][B,D] [A,C]3 | %12
w: fol- low- ers low- ly,|Bring- ing their spic- es in|to- ken of love,|
w: mes- sage of glad- ness!|He who was dead liv- eth|now in the skies.|
w: God ev- er liv- ing,|Sav- ior of sin- ners, Thy|prais- es we sing.|
 [DF]>[EF]F [DB][DF][DB] | [Fd][Ec][DB] [Ec] [EF]2 | [Dd][Ec][DB] [DA][DF]D | [CE]>[CF][CE] D3 || %16
w: Seek- ing for Je- sus, the|Mas- ter all ho- ly,|Found the bright mes- sen- gers|sent from a- bove.|
w: Tell to all hearts that are|mourn- ing in sad- ness,|Je- sus is ris- en; His|child- ren shall rise.|
w: Hear us, we pray, in our|joy- ful thanks- giv- ing,|Ris- en Re- deem- er and|con- quer- ing King.|
"^Refrain" [FA]2 z [FA][DF][FA] | [Fd]3 [FA]2 [Fd] | [Ec]4 [Fd][Ge] | [Fd]3 [FA]3 | %20
w: ||||
w: Hark! hark to the|mes- sage, the|glad East- er|greet- ing,|
w: ||||
 [GB]4 [Ac][Bd] | [Fd]3 [FA]2 [Fd] | [Ec]4 [Ed][DB] | A6 | [FA]4 [DF][FA] | [Fd]3 [FA]2 [Fd] | %26
w: ||||||
w: Je- sus is|ris- en! Re-|mem- ber His|word;|Tell it a-|broad, the good|
w: ||||||
 [Ge]4 [Fd][Ec] | [Fd]3 [FA]3 | [GB]4 [Ac][Bd] | [Af]3 [Fd]2 [DF] | [CA]4 [CG][CE] | D3- [A,D]3 |] %32
w: ||||||
w: tid- ings re-|peat- ing,|Till the whole|world the sweet|sto- ry has|heard. *|
w: ||||||
V:2
 x6 | x6 | x6 | x6 | x6 | x6 | x6 | x3 D3 | x2 F x3 | x6 | x2 F x3 | x6 | x2 F x3 | x6 | x5 D | %15
 x3 D3 || x6 | x6 | x6 | x6 | x6 | x6 | x6 | (CCD E3) | x6 | x6 | x6 | x6 | x6 | x6 | x6 | %31
 DCB, x3 |] %32
V:3
 [D,D]>[D,D][D,D] [D,D][D,D][D,A,] | [A,,G,][A,,F,][B,,A,] [A,,A,] [D,D]2 | %2
w: ~ ~ ~ ~ ~ ~|~ ~ ~ ~ ~|
 [D,D]>[D,D][D,D] [D,D][D,D][D,A,] | [E,A,][E,B,][E,^G,] [A,,A,]3 | %4
w: ~ ~ ~ ~ ~ ~|~ ~ ~ ~|
 [D,F,]>[D,F,][D,F,] [D,G,][D,F,][D,A,] | [A,,G,][B,,F,][A,,A,] [D,A,] [D,D]2 | %6
w: ~ ~ ~ ~ ~ ~|~ ~ ~ ~ ~|
 [F,D]>[F,D][F,D] [G,D][G,D][G,B,] | A,<A,[A,,G,] [D,F,]3 | %8
w: ~ ~ ~ ~ ~ ~|~ ~ ~ ~|
 [B,,B,]>[C,B,][D,B,] [B,,F,][B,,F,][B,,F,] | [B,,F,][C,F,][D,F,] [F,^A,] [F,A,]2 | %10
w: ~ ~ ~ ~ ~ ~|~ ~ ~ ~ ~|
 [B,,B,]>[C,B,][D,B,] [B,,B,][B,,B,][^A,,F,] | [B,,F,]>[C,F,][D,F,] F,3 | %12
w: ~ ~ ~ ~ ~ ~|~ ~ ~ ~|
 [B,,B,]>[C,B,][D,B,] [B,,F,][B,,F,][B,,F,] | [B,,F,][C,F,][D,F,] [F,^A,] [F,A,]2 | %14
w: ~ ~ ~ ~ ~ ~|~ ~ ~ ~ ~|
 [F,B,][F,^A,][G,B,] [F,D][D,A,][B,,^G,] | [A,,A,]>[A,,A,][A,,G,] [D,F,]3 || %16
w: ~ ~ ~ ~ ~ ~|~ ~ ~ ~|
 [D,D]2 z [D,D][D,D][D,D] | [D,A,][D,A,][D,A,] [D,D][D,D][D,A,] | %18
w: Hark! hark to the|heav- en- ly mes- sage, the|
 [A,,G,][A,,G,][A,,G,] [A,,A,][A,,A,] z | [D,A,][D,A,][D,A,] [D,D][D,D] z | [G,D]3 [G,D]2 G, | %21
w: glad East- er greet- ing,|glad East- er greet- ing,|Je- sus the|
 [D,A,][D,A,][D,A,] [D,D][D,D][D,A,] | [E,A,][E,A,][E,A,] (A,^G,)[E,G,] | %23
w: Sav- ior has ris- en! Re-|mem- ber His word, * re-|
 [A,,A,][A,,E,][A,,F,] !fermata![A,,G,]3 | [D,F,][D,A,][D,D] [D,D]2 z | %25
w: mem- ber His word.|Tell it a- broad,|
 [D,A,][D,A,][D,A,] [D,D]2 z | [A,C][A,C][A,C] [A,C][A,D]A, | [D,A,][D,A,][D,A,] [D,D] [D,D]2 | %28
w: tell it a- broad,|Tell it a- broad, the good|tid- ings re- peat- ing;|
 [G,D][G,D][G,D] [G,D]2 z | [D,D][D,D][D,D] [D,A,]2 z | %30
w: Till the whole world,|till the whole world,|
 [A,,G,][A,,G,][A,,G,] [A,,G,][A,,E,][A,,G,] | [D,F,][D,B,][D,G,] [D,F,]3 |] %32
w: Till the whole world the sweet|sto- ry has heard.|
V:4
 x6 | x6 | x6 | x6 | x6 | x6 | x6 | A,<A, x4 | x6 | x6 | x6 | x3 F,3 | x6 | x6 | x6 | x6 || x6 | %17
 x6 | x6 | x6 | x5 G, | x6 | x3 E,2 x | x6 | x6 | x6 | x5 A, | x6 | x6 | x6 | x6 | x6 |] %32

